X:1
T:Farewell to Whalley Range (Michael McGoldrick)
L:1/8
Q:1/4=180
M:9/8
K:A
 [cfa]2 [cfa]- [cfa]2 z z2 z |[cea]2 [cea]- [cea]2 z z2 z | [DFB]2 [DFB]- [DFB]2 z z2 z | [ceg]2 [ceg]- [ceg]2 z z2 z |
[cfa]2 [cfa]- [cfa]2 z z2 z | [cea]2 [cea]- [cea]2 z z2 z | [DFB]2 [DFB]- [DFB]2 z z2 z |[ceg]2 [ceg]- [ceg]2 z z2 z |
 [DFA]6 z2 z | [EGB]6 z2 z | [Bdf]6 z2 z | [ceg]6 z2 z |
!<(! [dfa]6 z2 z | [Beg]6 z2 z | [Bdf]6 z2 z | [Gce]6 z2 z!<)! ||
